X:1
T:Title
%%score { ( 1 3 ) | ( 2 4 ) }
L:1/8
M:9/8
K:D
V:1 treble nm="Grand Piano"
V:3 treble 
V:2 treble 
V:4 treble 
V:1
 z3 z3[Q:1/4=100] B^AB | d3 B3 [FA][EG][FA] | B6 B^AB | d3 B2 B [GB][GA]G | [FA]6 [FA][FA][FA] | %5
 [Fd]3 [FA]2 [FA] [FA][GB][A=c] | [GB]6 [Ge][EG=c][Ge] | d3 B2 d [Fd][FA][FB] |[M:3/4] G6 | %9
[M:6/8] BBB BBB | d3 [GB]3 | [FA][FA][FA] [FA][FA][FA] | B6 | edc d=cB | [EA]3 z3 | %15
 [Gd][Gd][Gd] [Fd][FA][FB] | G6 |] %17
V:2
 z3 z3 [G,DG][G,CG][G,DG] | [G,B,G]3 [G,DG]3[K:bass] [D,D][D,D][D,D] | [G,DG]6 [G,DG][G,CG][G,DG] | %3
 [G,B,G]3 [G,DG]2 [G,DG][K:bass] [E,C][E,C][E,C] | [D,D]6 [D,D][D,D][D,D] | %5
 [D,A,]3 [D,D]2 [D,D] [D,D][D,D][D,D] | [G,D]6 [=C,=C]C,[C,C] | %7
 [G,B,G]3 [G,DG]2 [G,B,G][K:bass] [D,A,][D,=C][D,D] |[M:3/4] [G,B,]6 | %9
[M:6/8][K:treble] [G,DG][G,DG][G,DG] [G,DG][G,DG][G,DG] | G3[K:bass] z3 | %11
 [D,D][D,D][D,D] [D,D][D,D][D,D] | [G,DG]6 | [G,=CG][G,B,G][G,^A,G] [G,B,G][G,EG][G,DG] | %14
 [=C,=C]C,C, [C,C] [C,C]2 | [D,B,][D,B,][D,B,] [D,A,][D,=C][D,D] | [G,B,]6 |] %17
V:3
 x9 | x9 | x9 | x9 | x9 | x9 | x9 | x9 |[M:3/4] x6 |[M:6/8] x6 | z B,B, DDD | x6 | x6 | x6 | %14
 z =CC [Ge]3 | x6 | x6 |] %17
V:4
 x9 | x6[K:bass] x3 | x9 | x6[K:bass] x3 | x9 | x9 | x9 | x6[K:bass] x3 |[M:3/4] x6 | %9
[M:6/8][K:treble] x6 | [G,B,][K:bass]G,G, G,G,G, | x6 | x6 | x6 | x6 | x6 | x6 |] %17

